X:105
T:Advice to the ladies - countermelody
O:england
M:6/8
L:1/8
C:Jean-Pierre Rasle / Steve Mansfield
R:Jig
K:G
Bcd efg|d6|gfg d3|cBc A3|Bcd efg|d6|gfg d3|edc B3:|
:BGB BGB|AFA AFA|BGB d3|cde efg|BGB BGB|AFA AFA|BGB d3|edc B3:|
Bcd d2g|gfe dcB|Bcd GAB|BAA ABc|d2B c2A|B2G ABc|gfg d3|edc B3:|


